X: 3
T: The Ships Are Sailing
R: reel
M: 4/4
L: 1/8
K: Ador
AB|cAB^G A=GEF|GABc dBGB|cAB^G A=GED|EAA^G A2AB|cAB^G A=GEF|GABc dBGB|cAB^G A=GED|EAA^G A2||AB|cdef g2eg|a2ed cAAB|cdef gfgd|eaa^g a2AB|cdef g2eg|aged cAAB|cAB^G A=GED|EAA^G A2||


Tune 543	Setting 25010

